X: 5786
T: Cáit Ní Dhuibhir
R: reel
M: 4/4
K: Gmajor
BA|G3E DEFD|G3F GABG|c2 BA GE (3DEF|E6 BA|
G3E DEFD|G3F GABc|d3 e B2A2|G3F G2 Bd|
e2c2 A2 Bc|d4 B3G|c2 BA GE (3DEF|E6 BA|
G3 E DEFD|G3F GABc|d3e B2A2|G3 F G2 z2|

